X:50
T:A selyei, a selyei bíró kapujába
M:4/4
L:1/4
K:F
DEFD | AcdA | GFAG | D2 D z |
DEFD | AcdA | GFAG | D2 D z |
d d d c | =B2 G2 | A cdA | F2 D z |
DEFD | AcdA | GFAG | D2 D z

